X: 43010
T: Willows, The
R: waltz
M: 3/4
K: Gmajor
GA|:"G"B3A Bd|G3G gf|"C"e3d eg|"G"d3G Bd|
[1"C"e3d eg|"G"d2 B2 (3GAB|"Am"c4 Bc|"D"A3d dc:|
[2"C"e3d eg|"G"d2 B2 GA|"D"B4 AB/A/|"G"G3d gf||
"G"d4 gf|d4 gd|"C"de/d/ cB cd|"D"A3G gf|
"G"d4 gf|d4 BG|"C"cB cd eg|"D"a3g gf|
"G"d4 gf|d4 gd|"C"de/d/ cB cd|"D"A4 GA|
"G"B3A Bd|"Bm" B3A Bd|"C"B2 "D"A4|"C"G6||

